X:650
T:John O'Groats Jig
B:Kohlers Violin repository - slightly adapted
N:  C:John Bain, Wick
Z:Nigel Gatherer
M:6/8
L:1/8
O:Scottish
R:jig
K:Dm
A/G/|FGA DFA|dfd ecA|Agf edc|=Bed c=BA|
FGA DFA|dfd ecA|Bgf ed^c|dDD D2:|
A|dfa afd|gbg ecA|dfa afd|=Bed c=BA|
dfa afd|gbg ecA|Bgf ed^c|dDD D2:|
